brandFactory_export/3.Masa/Pausa_3Masa.svg

<?xml version="1.0" encoding="UTF-8"?>
<svg width="24px" height="24px" viewBox="0 0 24 24" version="1.1" xmlns="http://www.w3.org/2000/svg" xmlns:xlink="http://www.w3.org/1999/xlink">
    <title>3.Masa/Pausa_3Masa</title>
    <g id="Symbols" stroke="none" stroke-width="1" fill="none" fill-rule="evenodd">
        <g id="3.Masa/Pausa_3Masa" fill="#5CB615" fill-rule="nonzero">
            <path d="M20.487395,2.9210084 C18.4840336,0.991596639 15.5697479,0.0134453782 11.8218487,0.0134453782 C8.07394958,0.0134453782 5.15966387,0.991596639 3.15966387,2.92436975 C1.08235294,4.92773109 0.0302521008,7.91932773 0.0302521008,11.8151261 C0.0302521008,15.7109244 1.08235294,18.6991597 3.15966387,20.702521 C5.15966387,22.6319328 8.07394958,23.610084 11.8218487,23.610084 C15.5697479,23.610084 18.4840336,22.6319328 20.487395,20.702521 C22.5647059,18.6991597 23.6201681,15.7109244 23.6201681,11.8151261 C23.6201681,7.91932773 22.5647059,4.92436975 20.487395,2.9210084 Z M9.17647059,16.3865546 C9.17647059,16.7563025 8.8907563,17.0588235 8.53781513,17.0588235 C8.18487395,17.0588235 7.89915966,16.7563025 7.89915966,16.3865546 L7.89915966,7.21008403 C7.89915966,6.84033613 8.18487395,6.53781513 8.53781513,6.53781513 C8.8907563,6.53781513 9.17647059,6.84033613 9.17647059,7.21008403 L9.17647059,16.3865546 Z M15.7647059,16.3966387 C15.7647059,16.7663866 15.4789916,17.0689076 15.1294118,17.0689076 C14.7798319,17.0689076 14.4941176,16.7663866 14.4941176,16.3966387 L14.4941176,7.22016807 C14.4941176,6.85042017 14.7798319,6.54789916 15.1294118,6.54789916 C15.4789916,6.54789916 15.7647059,6.85042017 15.7647059,7.22016807 L15.7647059,16.3966387 Z" id="Pausa_3Masa"></path>
        </g>
    </g>
</svg>

<svg width="24" height="24" viewBox="0 0 24 24" xmlns="http://www.w3.org/2000/svg"><path d="M20.487 2.921C18.484.991 15.57.013 11.822.013 8.074.013 5.16.992 3.16 2.924 1.082 4.928.03 7.92.03 11.815s1.052 6.884 3.13 8.888c2 1.929 4.914 2.907 8.662 2.907 3.748 0 6.662-.978 8.665-2.907 2.078-2.004 3.133-4.992 3.133-8.888s-1.055-6.89-3.133-8.894zM9.177 16.387c0 .37-.286.672-.64.672-.352 0-.638-.303-.638-.672V7.21c0-.37.286-.672.639-.672.353 0 .638.302.638.672v9.177zm6.588.01c0 .37-.286.672-.636.672-.35 0-.635-.303-.635-.672V7.22c0-.37.286-.672.635-.672.35 0 .636.302.636.672v9.177z" fill="#5CB615" fill-rule="nonzero"/></svg>
